X:5736
T:Gan Ainm
R:Reel
S:Billy McComiskey
H:
N:Not sure if this is the key its played in, but here goes..
D:Solo Album #1
Z:Adrian Scahill
M:4/4
L:1/8
K:A
ECC2 A2ce|dfed cAA2|BEGB AGEC|DFEC DB,B,2|\
ECC2 A2ce|dfed cAA2|BEE2 edBA|GEDB, CA,A,2:||\
ecc2 AcEc|dBB2 GBED|CEAc DFBA|GEE2 fe^df|\
ecc2 AcEc|dBB2 GBED|CEE2 DFBA GEDB, CA,A,2:||
